svgs/app_gallery.svg

<svg width="24" height="24" viewBox="0 0 24 24" fill="none" xmlns="http://www.w3.org/2000/svg">
<path d="M10.9778 10C10.7908 10.0173 10.2853 10.1373 10.2853 10.1373H10.2851C9.14582 10.4443 8.87654 11.5224 8.87654 11.5224C8.8209 11.7037 8.79563 11.8895 8.7882 12.0645V12.3027C8.80331 12.6708 8.88182 12.9456 8.88182 12.9456C9.26238 14.7052 11.1335 17.5965 11.5357 18.2039C11.5642 18.2334 11.5871 18.2227 11.5871 18.2227C11.6305 18.2102 11.6271 18.1668 11.6271 18.1668L11.6279 18.167C12.2473 11.7112 10.9778 10 10.9778 10L10.9778 10ZM13.0245 10C13.0245 10 11.7495 11.7122 12.3693 18.1717H12.3702C12.375 18.2127 12.4029 18.2212 12.4029 18.2212C12.4444 18.238 12.4656 18.1964 12.4656 18.1964L12.4658 18.1969C12.8783 17.574 14.7388 14.6984 15.1177 12.9456C15.1177 12.9456 15.3231 12.0972 15.1248 11.5224C15.1248 11.5224 14.8431 10.4276 13.7024 10.1383C13.7024 10.1383 13.3737 10.0513 13.0245 10L13.0245 10ZM7.14344 11.9381C7.14344 11.9381 6.0579 13.0124 6.00395 14.1514H6.00438V14.324C6.00521 14.337 6.00584 14.3501 6.00662 14.3634C6.05338 15.2818 6.71599 15.8254 6.71599 15.8254C7.78358 16.9103 10.3686 18.2802 10.9693 18.591C10.9777 18.5942 11.0088 18.6048 11.027 18.5808C11.027 18.5808 11.0365 18.5733 11.0408 18.5598V18.5312C11.0404 18.5296 11.0396 18.5279 11.0388 18.5261H11.039C9.39395 14.7789 7.14347 11.938 7.14347 11.938L7.14344 11.9381ZM16.8562 11.9381C16.8562 11.9381 14.6125 14.77 12.9682 18.5097L12.9689 18.5094C12.9689 18.5094 12.9494 18.5528 12.9808 18.5808C12.9808 18.5808 12.9902 18.5882 13.0032 18.5912H13.0259C13.03 18.5899 13.0344 18.5883 13.0387 18.5852V18.5856C13.6557 18.2663 16.2208 16.9055 17.2833 15.8255C17.2833 15.8255 17.9562 15.2621 17.9915 14.3574C18.0692 13.1009 16.8563 11.938 16.8563 11.938L16.8562 11.9381ZM18.8757 15.6583C18.8757 15.6583 15.2178 17.7052 13.3265 19.0355L13.3267 19.0357L13.3271 19.0361C13.3271 19.0361 13.2928 19.0595 13.3048 19.1015C13.3048 19.1015 13.3227 19.1354 13.3488 19.1354V19.1356C14.0263 19.1369 16.5897 19.1399 16.654 19.1274C16.654 19.1274 16.9855 19.1136 17.395 18.9495C17.395 18.9495 18.3069 18.6472 18.7805 17.5677C18.7805 17.5677 18.9969 17.1164 19 16.4822V16.4554C18.9984 16.2108 18.9654 15.9401 18.8757 15.6583H18.8757ZM5.12298 15.6678C4.79017 16.7422 5.23822 17.6079 5.23894 17.6093C5.70587 18.638 6.59715 18.9497 6.59715 18.9497C7.00865 19.126 7.42024 19.1382 7.42024 19.1382C7.48451 19.1504 9.97967 19.1394 10.6482 19.1361C10.6765 19.1359 10.6921 19.1063 10.6921 19.1063C10.6941 19.103 10.6958 19.0997 10.6966 19.0967V19.0698C10.691 19.0518 10.6763 19.0391 10.6763 19.0391L10.6767 19.0389C8.78633 17.7091 5.12301 15.6679 5.12301 15.6679L5.12298 15.6678ZM10.5719 19.4664L6.26877 19.6238C6.73542 20.4912 7.52132 21.1653 8.34 20.9583C8.90497 20.811 10.1849 19.8801 10.6074 19.5655L10.606 19.5643C10.6388 19.5335 10.6271 19.5088 10.6271 19.5088C10.6163 19.4685 10.5719 19.4686 10.5719 19.4686L10.5719 19.4664ZM13.4219 19.4697L13.4215 19.4713C13.4215 19.4713 13.3837 19.4763 13.3732 19.5058C13.3732 19.5058 13.364 19.5462 13.3894 19.5662L13.389 19.5666C13.8009 19.8746 15.0498 20.7851 15.6515 20.9619C15.6515 20.9619 15.7427 20.9942 15.8954 21H15.9872C16.3903 20.9852 17.0925 20.7693 17.7307 19.6261L13.4219 19.4697Z" fill="#FFF1C0"/>
<path fill-rule="evenodd" clip-rule="evenodd" d="M19.7394 3.548C19.8889 3.78464 19.842 4.0966 19.6226 4.27039C15.0273 7.90987 8.97272 7.90987 4.37743 4.27039C4.15799 4.0966 4.11108 3.78464 4.2606 3.548C4.44337 3.25874 4.83987 3.19959 5.11139 3.40781C9.28632 6.60938 14.7137 6.60938 18.8886 3.40781C19.1601 3.1996 19.5566 3.25874 19.7394 3.548Z" fill="#FFF1C0"/>
</svg>

<svg xmlns="http://www.w3.org/2000/svg" viewBox="0 0 24 24"><path d="M19.74 3.548a.547.547 0 0 1-.117.722c-4.596 3.64-10.65 3.64-15.246 0a.547.547 0 0 1-.116-.722.585.585 0 0 1 .85-.14c4.175 3.201 9.603 3.201 13.778 0a.585.585 0 0 1 .85.14M10.978 10c-.187.017-.693.137-.693.137-1.14.307-1.408 1.385-1.408 1.385a2.183 2.183 0 0 0-.089.543v.238c.015.368.094.643.094.643.38 1.76 2.252 4.65 2.654 5.258.028.03.051.019.051.019.043-.013.04-.056.04-.056.62-6.456-.65-8.167-.65-8.167m2.047 0s-1.276 1.712-.656 8.172h.001c.005.04.033.05.033.05.041.016.063-.026.063-.026.412-.622 2.273-3.498 2.652-5.25 0 0 .205-.849.007-1.424 0 0-.282-1.094-1.423-1.384 0 0-.328-.087-.678-.138m-5.882 1.938s-1.085 1.074-1.14 2.213h.001v.173l.003.04c.046.918.709 1.461.709 1.461 1.068 1.085 3.653 2.455 4.253 2.766.009.003.04.014.058-.01 0 0 .01-.008.014-.021v-.029l-.002-.005c-1.645-3.747-3.896-6.588-3.896-6.588m9.713 0s-2.244 2.832-3.888 6.572c0 0-.019.043.013.07 0 0 .01.008.022.011h.023a.043.043 0 0 0 .013-.006c.617-.319 3.182-1.68 4.244-2.76 0 0 .673-.563.708-1.468.078-1.256-1.135-2.419-1.135-2.419m2.02 3.72s-3.658 2.047-5.55 3.377l.001.001s-.034.023-.022.066c0 0 .018.033.044.033.677.002 3.24.005 3.305-.008 0 0 .331-.013.741-.177 0 0 .912-.303 1.386-1.382 0 0 .216-.452.219-1.086v-.027a2.677 2.677 0 0 0-.124-.797m-13.753.01a2.753 2.753 0 0 0 .116 1.941c.467 1.029 1.358 1.34 1.358 1.34.412.177.823.19.823.19.065.011 2.56 0 3.228-.003.029 0 .044-.03.044-.03a.04.04 0 0 0 .005-.01v-.026a.075.075 0 0 0-.02-.03v-.001c-1.89-1.33-5.554-3.371-5.554-3.371m5.449 3.798-4.303.158c.466.867 1.252 1.541 2.071 1.334.565-.147 1.845-1.078 2.267-1.392l-.001-.002c.033-.03.021-.055.021-.055-.01-.04-.055-.04-.055-.04v-.003m2.85.004v.001s-.038.005-.049.035c0 0-.009.04.016.06.412.309 1.66 1.22 2.263 1.396 0 0 .09.032.243.038h.092c.403-.015 1.106-.23 1.744-1.374l-4.31-.156"/></svg>
